pkg/gui/ico/svg/ic_Link_128px.svg

<?xml version="1.0" encoding="UTF-8" standalone="no"?>
<svg
   xmlns:dc="http://purl.org/dc/elements/1.1/"
   xmlns:cc="http://creativecommons.org/ns#"
   xmlns:rdf="http://www.w3.org/1999/02/22-rdf-syntax-ns#"
   xmlns:svg="http://www.w3.org/2000/svg"
   xmlns="http://www.w3.org/2000/svg"
   xmlns:sodipodi="http://sodipodi.sourceforge.net/DTD/sodipodi-0.dtd"
   xmlns:inkscape="http://www.inkscape.org/namespaces/inkscape"
   version="1"
   viewBox="0 0 48 48"
   enable-background="new 0 0 48 48"
   id="svg10"
   sodipodi:docname="ic_Link_128px.svg"
   inkscape:version="1.0.1 (3bc2e813f5, 2020-09-07)">
  <metadata
     id="metadata16">
    <rdf:RDF>
      <cc:Work
         rdf:about="">
        <dc:format>image/svg+xml</dc:format>
        <dc:type
           rdf:resource="http://purl.org/dc/dcmitype/StillImage" />
      </cc:Work>
    </rdf:RDF>
  </metadata>
  <defs
     id="defs14" />
  <sodipodi:namedview
     pagecolor="#ffffff"
     bordercolor="#666666"
     borderopacity="1"
     objecttolerance="10"
     gridtolerance="10"
     guidetolerance="10"
     inkscape:pageopacity="0"
     inkscape:pageshadow="2"
     inkscape:window-width="1412"
     inkscape:window-height="1408"
     id="namedview12"
     showgrid="false"
     inkscape:zoom="21"
     inkscape:cx="24"
     inkscape:cy="24"
     inkscape:window-x="1836"
     inkscape:window-y="126"
     inkscape:window-maximized="0"
     inkscape:current-layer="svg10"
     inkscape:document-rotation="0" />
  <path
     id="path2"
     style="fill:#000000"
     d="M 10 13 C 4.5 13 0 17.5 0 23 C 0 28.5 4.5 33 10 33 L 13 33 C 17.815257 33 21.865335 29.549764 22.798828 25 L 25.201172 25 C 26.134665 29.549764 30.184743 33 35 33 L 38 33 C 43.5 33 48 28.5 48 23 C 48 17.5 43.5 13 38 13 L 35 13 C 30.184743 13 26.134665 16.450236 25.201172 21 L 22.798828 21 C 21.865335 16.450236 17.815257 13 13 13 L 10 13 z M 10 17 L 13 17 C 15.598668 17 17.819396 18.676854 18.648438 21 L 15 21 C 13.9 21 13 21.9 13 23 C 13 24.1 13.9 25 15 25 L 18.648438 25 C 17.819396 27.323146 15.598668 29 13 29 L 10 29 C 6.7 29 4 26.3 4 23 C 4 19.7 6.7 17 10 17 z M 35 17 L 38 17 C 41.3 17 44 19.7 44 23 C 44 26.3 41.3 29 38 29 L 35 29 C 32.401332 29 30.180604 27.323146 29.351562 25 L 33 25 C 34.1 25 35 24.1 35 23 C 35 21.9 34.1 21 33 21 L 29.351562 21 C 30.180604 18.676854 32.401332 17 35 17 z " />
</svg>

<svg version="1" xmlns="http://www.w3.org/2000/svg" viewBox="0 0 48 48"
     enable-background="new 0 0 48 48">
    <g fill="#3030CF">
        <path d="M38,13h-3c-5.5,0-10,4.5-10,10s4.5,10,10,10h3c5.5,0,10-4.5,10-10S43.5,13,38,13z M38,29h-3 c-3.3,0-6-2.7-6-6s2.7-6,6-6h3c3.3,0,6,2.7,6,6S41.3,29,38,29z"/>
        <path d="M13,13h-3C4.5,13,0,17.5,0,23s4.5,10,10,10h3c5.5,0,10-4.5,10-10S18.5,13,13,13z M13,29h-3 c-3.3,0-6-2.7-6-6s2.7-6,6-6h3c3.3,0,6,2.7,6,6S16.3,29,13,29z"/>
    </g>
    <path fill="#30CFCF"
          d="M33,21H15c-1.1,0-2,0.9-2,2s0.9,2,2,2h18c1.1,0,2-0.9,2-2S34.1,21,33,21z"/>
</svg>
